!!!OTL: DIE LUFT IST BLAU
!!!ARE: Europa, Mitteleuropa, Deutschland
!!!SCT: F0978
!!!YEM: Copyright 1995, estate of Helmut Schaffrath.
**kern
*ICvox
*Ivox
*M2/4
*k[f#]
*G:
{8dd
=1
8.dd
16cc
8b
8b
=2
16b
16cc
16b
16a
8g}
{8dd
=3
8gg
16ff#
16ee
8.dd
16b
=4
16a
16b
16cc
16dd
8b}
{8b
=5
8.a
16dd
16ff#
16ee
16dd
16cc#
=6
4ee
8dd}
{8d
=7
8.cc
16b
8a
8a
=8
16dd
16ee
16dd
16cc
8b}
{16b
16cc
=9
8dd
16b
16cc
8dd
16b
16cc
=10
4dd
8b}
{8dd
=11
8.gg
16dd
16ee
16dd
16cc
16b
=12
4a
8g}
==
!!!AGN: Natur -, Jahreszeiten - Lied, Fruehling
!!!ONB: ESAC (Essen Associative Code) Database: FINK
!!!AMT: simple duple
!!!AIN: vox
!!!EED: Helmut Schaffrath
!!!EEV: 1.0
*-
